X:1
T:Ne temere quid loquaris
T:Pierre de la Rue
T:Source : Bicinia---Tomus I---Wittemberg---G.Rhau---1545. Editor : André Vierendeels (13/06/17). 
T:Notes : Original clefs : C1, C4 Editorial accidentals above the staff Original note values have been halved Dotted brackets indicate black notes m 36 in T : slightly adapted by the editor (AGFED in original print)
T:Ne temere quid loquaris
T:©
T:©
C:Pierre de la Rue
Z:©
%%score [ 1 2 ]
L:1/8
Q:1/4=121
M:2/2
K:C
V:1 treble nm="Soprano" snm="S"
V:2 treble-8 nm="Tenor" snm="T"
V:1
 z8 | z2 C2 CDEF | G3 A B2 c2- | c2 BA B4 | E8 | z4 z2 A2- | A2 GF G4 | A2 c4 BA | B2 A2 BAGF | %9
w: |Ne te- * * *|me- re quid lo-|* * * qua-|ris|ne-|* * * que|cor tu- * *|um sit ve- * * *|
 E4 z2 DE | FGAB c2 B2- | B2 G3 F F2 | G8- | G8 | z2 GF GA B2- | B2 AG A2 B2 | E2 B4 AG | %17
w: lox, sit _|_ _ _ _ ve- *||lox,|_|ad _ _ _ pro|_ _ _ _ se-|ren- dum ser- *|
 A2 B2 c4 | B2 A4 G2 | A4 z2 E2 | E2 F4 ED | E2 D4 B2 | c2 A2 B2 d2- | dcBA G3 A | B2 A4 d2- | %25
w: * mo- nem|co- ram De-|o, De-|us e- * *|* nim in|coe- lo et tu|_ _ _ _ su- per|ter- * *|
 d2 c4 B2 | c3 B G2 A2- | AG E2 F3 E | C4 z4 | z2 G2 E2 F2 | G2 A2 B2 c2 | d3 c B2 A2 | %32
w: * ram, id-|cir- * * *||co,|pau- ci ser-|mo- nes tu- *||
 G2 FE F2 E2 | z2 A4 G2 | F2 ED C2 c2 | edcB c2 BA | G2 C2 z2 CD | EFGA BG A2- | A2 G3 F F2 | G8 |] %40
w: * * * * i,|sint pau-|* * * ci ser-|mo- * * * * * *|* nes, tu- *|||i.|
V:2
 A4 ABcd | e8 | e8 | d8 | c4 z2 A2 | ABcd d2 f2- | f2 ed e4 | A8 | z2 d4 B2 | c4 d2 f2- | %10
w: Ne te- * me- re|quid|lo-|qua|ris, ne|te- * me- re quid lo-|* * * qua-|ris|ne- que|cor tu- um|
 f2 ed e2 d2 | edcB A4 | G4 z2 cB | cd e4 dc |"^#" B2 c2 G2 d2- | d2 cB c2 d2 | e4 d4- | %17
w: _ _ _ _ fit|ve- * * * *|lox, ad _|_ _ _ pro- *|fe- ren- dum ser-|* mo- * nem co-|ram _|
 d2 cB AB c2 | dcBA B4 | A8 | z4 z2 A2 | A2 B4 AG | A2 F2 G4 | z2 d2 e2 c2 | d2 f3 e dc | %25
w: _ _ _ _ _ _|* * * * De-|o,|De-|us e- * *|* * nim|in coe- lo|et tu _ _ _|
 B2 c2 d4 | c8 | z4 z2 d2 | e3 d B2 c2- | cB G2 A3 G | E8 | z2 B2 G2 A2 | B2 c2 d2 e2 | fedc B4 | %34
w: su- per ter-|ram,|id|cir- * * *||co|sint pau- ci|ser- mo- nes tu-||
 A4 z2 A2- | A2 F2 E2 GF | C2 c3 BAG | A2 GF E2 D2 | E4 F4 | E8 |] %40
w: i, sint|_ pau- ci _ _|_ ser- * * *|mo- * * * *|nes tu-|i.|

